assets/icons/tag-24.svg

<svg width="24" height="24" viewBox="0 0 24 24" fill="none" xmlns="http://www.w3.org/2000/svg">
<path fill-rule="evenodd" clip-rule="evenodd" d="M19.4568 10.1068L13.8932 4.54317C13.125 3.77499 11.8796 3.77499 11.1114 4.54317L4.94078 10.7138C4.60387 11.0507 4.4007 11.4984 4.36901 11.9738L3.9716 17.9349C3.89244 19.1223 4.87766 20.1076 6.06513 20.0284L12.0262 19.631C12.5016 19.5993 12.9493 19.3961 13.2862 19.0592L19.4568 12.8886C20.225 12.1204 20.225 10.875 19.4568 10.1068ZM15.2841 3.15226L20.8477 8.71589C22.3841 10.2522 22.3841 12.7432 20.8477 14.2795L14.6771 20.4501C14.0033 21.1239 13.1078 21.5303 12.157 21.5937L6.19598 21.9911C3.82104 22.1494 1.85059 20.179 2.00892 17.804L2.40633 11.843C2.46971 10.8922 2.87606 9.9967 3.54987 9.32288L9.72049 3.15226C11.2568 1.61591 13.7478 1.61591 15.2841 3.15226ZM7.63413 13.5841C8.4023 12.8159 9.64776 12.8159 10.4159 13.5841C11.1841 14.3522 11.1841 15.5977 10.4159 16.3659C9.64776 17.134 8.4023 17.134 7.63413 16.3659C6.86595 15.5977 6.86595 14.3522 7.63413 13.5841Z" fill="#F2F2F2"/>
</svg>

<svg xmlns="http://www.w3.org/2000/svg" width="24" height="24" viewBox="0 0 24 24"><path fill-rule="evenodd" d="M19.457 10.107l-5.564-5.564a1.967 1.967 0 00-2.782 0l-6.17 6.17c-.337.338-.54.785-.572 1.26l-.397 5.962a1.967 1.967 0 002.093 2.093l5.961-.397a1.967 1.967 0 001.26-.572l6.17-6.17a1.967 1.967 0 000-2.782zm-4.173-6.955l5.564 5.564a3.934 3.934 0 010 5.564l-6.17 6.17a3.934 3.934 0 01-2.521 1.144l-5.961.397a3.934 3.934 0 01-4.187-4.187l.397-5.961c.064-.95.47-1.846 1.144-2.52l6.17-6.17a3.934 3.934 0 015.564 0zm-7.65 10.432a1.967 1.967 0 112.782 2.782 1.967 1.967 0 01-2.782-2.782z"/></svg>
